X: 11177
T: Dunderave
R: reel
M: 4/4
K: Gmajor
dc|:BcAB GBdc|BcAB G2 AB|cdBc Aced|cdBc A2 dc:|
Bgfg dBGB|dgfg d2 cd|eaga ecAB|cdef gedc|
Bgfg dBGB|dgfg d2 cB|ABcd efge|dBGB A2||

